img/icons/htl_video-icon.svg

<svg width="66" height="53" viewBox="0 0 66 53" fill="none" xmlns="http://www.w3.org/2000/svg">
<path d="M60.0336 0.674072H13.7326C12.5047 0.675849 11.316 1.1194 10.3717 1.92811C9.42747 2.73682 8.787 3.8599 8.56094 5.10337C7.51712 5.30557 6.55686 5.82773 5.80584 6.60151C5.05481 7.37529 4.54801 8.36465 4.35176 9.4401C3.14486 9.67302 2.05481 10.3329 1.26989 11.3058C0.484962 12.2786 0.0544588 13.5034 0.0527344 14.7685V47.294C0.0543011 48.7312 0.609137 50.1091 1.59552 51.1254C2.5819 52.1416 3.91926 52.7133 5.31421 52.7149H51.6152C52.8431 52.7131 54.0318 52.2696 54.9761 51.4609C55.9203 50.6521 56.5608 49.5291 56.7869 48.2856C57.8307 48.0834 58.7909 47.5612 59.542 46.7875C60.293 46.0137 60.7998 45.0243 60.996 43.9489C62.2029 43.7159 63.293 43.0561 64.0779 42.0832C64.8628 41.1103 65.2934 39.8856 65.2951 38.6205V6.09499C65.2935 4.65777 64.7387 3.27987 63.7523 2.26361C62.7659 1.24734 61.4285 0.675686 60.0336 0.674072ZM2.15733 14.7685C2.15827 13.9061 2.49117 13.0794 3.083 12.4696C3.67482 11.8599 4.47724 11.5169 5.31421 11.5159H51.6152C52.4522 11.5169 53.2546 11.8599 53.8464 12.4696C54.4383 13.0794 54.7712 13.9061 54.7721 14.7685V15.8526H2.15733V14.7685ZM54.7721 47.294C54.7712 48.1563 54.4383 48.983 53.8464 49.5928C53.2546 50.2026 52.4522 50.5456 51.6152 50.5465H5.31421C4.47724 50.5456 3.67482 50.2026 3.083 49.5928C2.49117 48.983 2.15827 48.1563 2.15733 47.294V18.021H54.7721V47.294ZM58.9813 42.9572C58.9805 43.6296 58.7778 44.2852 58.401 44.8342C58.0242 45.3831 57.4917 45.7985 56.8767 46.0233V14.7685C56.8751 13.3312 56.3203 11.9533 55.3339 10.9371C54.3475 9.9208 53.0102 9.34916 51.6152 9.34754H6.5475C6.76572 8.71389 7.16888 8.16533 7.70168 7.77711C8.23448 7.38888 8.87082 7.18002 9.5234 7.17917H55.8244C56.6614 7.18014 57.4638 7.52313 58.0556 8.13289C58.6475 8.74266 58.9804 9.56939 58.9813 10.4317V42.9572ZM63.1905 38.6205C63.1897 39.2929 62.9869 39.9485 62.6101 40.4974C62.2333 41.0464 61.7009 41.4617 61.0859 41.6866V10.4317C61.0843 8.9945 60.5295 7.61661 59.5431 6.60034C58.5567 5.58407 57.2194 5.01242 55.8244 5.01081H10.7567C10.9749 4.37716 11.3781 3.82859 11.9109 3.44037C12.4437 3.05215 13.08 2.84329 13.7326 2.84244H60.0336C60.8706 2.84341 61.673 3.1864 62.2648 3.79616C62.8566 4.40592 63.1895 5.23266 63.1905 6.09499V38.6205Z" fill="url(#paint0_linear)"/>
<path d="M5.31401 14.7685C5.89518 14.7685 6.36631 14.2831 6.36631 13.6843C6.36631 13.0855 5.89518 12.6001 5.31401 12.6001C4.73285 12.6001 4.26172 13.0855 4.26172 13.6843C4.26172 14.2831 4.73285 14.7685 5.31401 14.7685Z" fill="url(#paint1_linear)"/>
<path d="M9.523 14.7685C10.1042 14.7685 10.5753 14.2831 10.5753 13.6843C10.5753 13.0855 10.1042 12.6001 9.523 12.6001C8.94183 12.6001 8.4707 13.0855 8.4707 13.6843C8.4707 14.2831 8.94183 14.7685 9.523 14.7685Z" fill="url(#paint2_linear)"/>
<path d="M13.732 14.7685C14.3132 14.7685 14.7843 14.2831 14.7843 13.6843C14.7843 13.0855 14.3132 12.6001 13.732 12.6001C13.1508 12.6001 12.6797 13.0855 12.6797 13.6843C12.6797 14.2831 13.1508 14.7685 13.732 14.7685Z" fill="url(#paint3_linear)"/>
<path fill-rule="evenodd" clip-rule="evenodd" d="M15.8379 24.2737C15.8379 22.6168 17.181 21.2737 18.8379 21.2737H38.093C39.7498 21.2737 41.093 22.6168 41.093 24.2737V37.789C41.093 39.4458 39.7498 40.789 38.093 40.789H18.8379C17.181 40.789 15.8379 39.4458 15.8379 37.789V24.2737ZM25.8479 33.0617C26.0113 33.1558 26.1961 33.2032 26.3833 33.1992C26.5705 33.1951 26.7532 33.1397 26.9126 33.0386L32.0426 29.7861C32.1956 29.689 32.322 29.5532 32.4097 29.3916C32.4973 29.23 32.5433 29.0479 32.5433 28.8628C32.5433 28.6776 32.4973 28.4956 32.4097 28.3339C32.322 28.1723 32.1956 28.0365 32.0426 27.9395L26.9126 24.6869C26.7532 24.5857 26.5704 24.5302 26.3832 24.5261C26.196 24.522 26.0111 24.5695 25.8476 24.6636C25.6841 24.7577 25.548 24.895 25.4532 25.0614C25.3585 25.2278 25.3085 25.4173 25.3086 25.6102V32.1153C25.3086 32.3082 25.3586 32.4976 25.4534 32.664C25.5482 32.8303 25.6844 32.9676 25.8479 33.0617ZM33.4187 33.5173C33.7445 33.8529 34.1061 34.2839 34.5739 34.2839H35.8315C36.1106 34.2839 36.3783 34.3981 36.5756 34.6014C36.7729 34.8048 36.8838 35.0805 36.8838 35.3681C36.8838 35.6556 36.7729 35.9314 36.5756 36.1347C36.3783 36.338 36.1106 36.4523 35.8315 36.4523H34.5739C34.1061 36.4523 33.7445 36.8832 33.4187 37.2189C33.2214 37.4222 32.9537 37.5364 32.6746 37.5364C32.3955 37.5364 32.1279 37.4222 31.9305 37.2189C31.6047 36.8832 31.2431 36.4523 30.7753 36.4523H21.0994C20.8203 36.4523 20.5526 36.338 20.3553 36.1347C20.1579 35.9314 20.0471 35.6556 20.0471 35.3681C20.0471 35.0805 20.1579 34.8048 20.3553 34.6014C20.5526 34.3981 20.8203 34.2839 21.0994 34.2839H30.7753C31.2431 34.2839 31.6047 33.8529 31.9305 33.5173C32.1279 33.3139 32.3955 33.1997 32.6746 33.1997C32.9537 33.1997 33.2214 33.3139 33.4187 33.5173Z" fill="url(#paint4_linear)"/>
<path d="M16.8902 44.0414H40.0407C40.3198 44.0414 40.5874 43.9272 40.7848 43.7239C40.9821 43.5205 41.093 43.2448 41.093 42.9572C41.093 42.6697 40.9821 42.3939 40.7848 42.1906C40.5874 41.9873 40.3198 41.873 40.0407 41.873H16.8902C16.6111 41.873 16.3434 41.9873 16.1461 42.1906C15.9488 42.3939 15.8379 42.6697 15.8379 42.9572C15.8379 43.2448 15.9488 43.5205 16.1461 43.7239C16.3434 43.9272 16.6111 44.0414 16.8902 44.0414Z" fill="url(#paint5_linear)"/>
<path d="M16.8902 47.2939H31.6223C31.9014 47.2939 32.1691 47.1796 32.3664 46.9763C32.5638 46.773 32.6746 46.4972 32.6746 46.2097C32.6746 45.9221 32.5638 45.6464 32.3664 45.443C32.1691 45.2397 31.9014 45.1255 31.6223 45.1255H16.8902C16.6111 45.1255 16.3434 45.2397 16.1461 45.443C15.9488 45.6464 15.8379 45.9221 15.8379 46.2097C15.8379 46.4972 15.9488 46.773 16.1461 46.9763C16.3434 47.1796 16.6111 47.2939 16.8902 47.2939Z" fill="url(#paint6_linear)"/>
<path d="M35.8312 45.1255H34.7789C34.4998 45.1255 34.2321 45.2397 34.0348 45.443C33.8374 45.6464 33.7266 45.9221 33.7266 46.2097C33.7266 46.4972 33.8374 46.773 34.0348 46.9763C34.2321 47.1796 34.4998 47.2939 34.7789 47.2939H35.8312C36.1102 47.2939 36.3779 47.1796 36.5752 46.9763C36.7726 46.773 36.8834 46.4972 36.8834 46.2097C36.8834 45.9221 36.7726 45.6464 36.5752 45.443C36.3779 45.2397 36.1102 45.1255 35.8312 45.1255Z" fill="url(#paint7_linear)"/>
<defs>
<linearGradient id="paint0_linear" x1="65.2951" y1="26.6945" x2="0.0527344" y2="26.6945" gradientUnits="userSpaceOnUse">
<stop stop-color="#4CBA85"/>
<stop offset="1" stop-color="#2569AC"/>
</linearGradient>
<linearGradient id="paint1_linear" x1="6.36631" y1="13.6843" x2="4.26172" y2="13.6843" gradientUnits="userSpaceOnUse">
<stop stop-color="#4CBA85"/>
<stop offset="1" stop-color="#2569AC"/>
</linearGradient>
<linearGradient id="paint2_linear" x1="10.5753" y1="13.6843" x2="8.4707" y2="13.6843" gradientUnits="userSpaceOnUse">
<stop stop-color="#4CBA85"/>
<stop offset="1" stop-color="#2569AC"/>
</linearGradient>
<linearGradient id="paint3_linear" x1="14.7843" y1="13.6843" x2="12.6797" y2="13.6843" gradientUnits="userSpaceOnUse">
<stop stop-color="#4CBA85"/>
<stop offset="1" stop-color="#2569AC"/>
</linearGradient>
<linearGradient id="paint4_linear" x1="41.093" y1="31.0313" x2="15.8379" y2="31.0313" gradientUnits="userSpaceOnUse">
<stop stop-color="#4CBA85"/>
<stop offset="1" stop-color="#2569AC"/>
</linearGradient>
<linearGradient id="paint5_linear" x1="41.093" y1="42.9572" x2="15.8379" y2="42.9572" gradientUnits="userSpaceOnUse">
<stop stop-color="#4CBA85"/>
<stop offset="1" stop-color="#2569AC"/>
</linearGradient>
<linearGradient id="paint6_linear" x1="32.6746" y1="46.2097" x2="15.8379" y2="46.2097" gradientUnits="userSpaceOnUse">
<stop stop-color="#4CBA85"/>
<stop offset="1" stop-color="#2569AC"/>
</linearGradient>
<linearGradient id="paint7_linear" x1="36.8834" y1="46.2097" x2="33.7266" y2="46.2097" gradientUnits="userSpaceOnUse">
<stop stop-color="#4CBA85"/>
<stop offset="1" stop-color="#2569AC"/>
</linearGradient>
</defs>
</svg>

<svg width="66" height="53" fill="none" xmlns="http://www.w3.org/2000/svg"><path d="M60.034.674H13.733a5.176 5.176 0 00-3.361 1.254A5.464 5.464 0 008.56 5.103a5.227 5.227 0 00-2.755 1.499A5.49 5.49 0 004.352 9.44a5.24 5.24 0 00-3.082 1.866 5.53 5.53 0 00-1.217 3.463v32.525a5.512 5.512 0 001.543 3.831 5.19 5.19 0 003.718 1.59h46.301a5.176 5.176 0 003.361-1.254 5.465 5.465 0 001.81-3.175 5.227 5.227 0 002.756-1.498 5.49 5.49 0 001.454-2.84 5.24 5.24 0 003.082-1.865 5.53 5.53 0 001.217-3.462V6.094a5.511 5.511 0 00-1.543-3.831 5.19 5.19 0 00-3.718-1.59zM2.157 14.768a3.304 3.304 0 01.926-2.298 3.114 3.114 0 012.231-.954h46.301c.837 0 1.64.344 2.231.954.592.61.925 1.436.926 2.298v1.085H2.157v-1.085zm52.615 32.526c0 .862-.334 1.689-.926 2.299a3.114 3.114 0 01-2.23.953H5.313c-.837 0-1.64-.343-2.231-.953a3.307 3.307 0 01-.926-2.299V18.021h52.615v29.273zm4.21-4.337a3.333 3.333 0 01-.581 1.877c-.377.55-.91.964-1.524 1.19V14.767a5.511 5.511 0 00-1.543-3.83 5.19 5.19 0 00-3.719-1.59H6.547a3.25 3.25 0 011.155-1.57 3.099 3.099 0 011.821-.599h46.301c.837.001 1.64.344 2.232.954.592.61.924 1.436.925 2.299v32.525zm4.209-4.337a3.33 3.33 0 01-.58 1.877c-.378.55-.91.965-1.525 1.19V10.432A5.511 5.511 0 0059.543 6.6a5.19 5.19 0 00-3.719-1.59H10.757a3.25 3.25 0 011.154-1.57 3.099 3.099 0 011.822-.598h46.3c.838.001 1.64.344 2.232.954.592.61.925 1.437.925 2.299V38.62z" fill="url(#paint0_linear)"/><path d="M5.314 14.768c.581 0 1.052-.485 1.052-1.084 0-.598-.47-1.084-1.052-1.084-.581 0-1.052.486-1.052 1.084 0 .6.47 1.085 1.052 1.085z" fill="url(#paint1_linear)"/><path d="M9.523 14.768c.581 0 1.052-.485 1.052-1.084 0-.598-.47-1.084-1.052-1.084-.581 0-1.052.486-1.052 1.084 0 .6.47 1.085 1.052 1.085z" fill="url(#paint2_linear)"/><path d="M13.732 14.768c.581 0 1.052-.485 1.052-1.084 0-.598-.47-1.084-1.052-1.084-.581 0-1.052.486-1.052 1.084 0 .6.47 1.085 1.052 1.085z" fill="url(#paint3_linear)"/><path fill-rule="evenodd" clip-rule="evenodd" d="M15.838 24.274a3 3 0 013-3h19.255a3 3 0 013 3v13.515a3 3 0 01-3 3H18.838a3 3 0 01-3-3V24.274zm10.01 8.788a1.028 1.028 0 001.065-.023l5.13-3.253c.153-.097.279-.233.367-.394a1.11 1.11 0 000-1.058 1.071 1.071 0 00-.367-.395l-5.13-3.252a1.03 1.03 0 00-1.065-.023c-.164.094-.3.231-.395.397a1.11 1.11 0 00-.144.55v6.504c0 .193.05.383.144.549.095.166.231.304.395.398zm7.57.455c.327.336.688.767 1.156.767h1.258c.279 0 .546.114.744.317a1.105 1.105 0 010 1.534 1.037 1.037 0 01-.745.317h-1.257c-.468 0-.83.431-1.155.767a1.037 1.037 0 01-.744.317c-.28 0-.547-.114-.744-.317-.326-.336-.688-.767-1.156-.767H21.1c-.279 0-.546-.114-.744-.317a1.1 1.1 0 01-.308-.767c0-.288.11-.563.308-.767.198-.203.465-.317.744-.317h9.676c.468 0 .83-.431 1.155-.767a1.04 1.04 0 01.745-.317c.279 0 .546.114.744.317z" fill="url(#paint4_linear)"/><path d="M16.89 44.041h23.15c.28 0 .547-.114.745-.317.197-.203.308-.48.308-.767 0-.287-.11-.563-.308-.766a1.037 1.037 0 00-.744-.318H16.89c-.28 0-.548.114-.745.318a1.101 1.101 0 00-.308.766c0 .288.11.563.308.767.197.203.465.317.744.317z" fill="url(#paint5_linear)"/><path d="M16.89 47.294h14.732c.28 0 .547-.114.744-.318a1.1 1.1 0 00.309-.766c0-.288-.111-.564-.309-.767a1.037 1.037 0 00-.744-.317H16.89c-.279 0-.547.114-.744.317-.197.203-.308.48-.308.767 0 .287.11.563.308.766.197.204.465.318.744.318z" fill="url(#paint6_linear)"/><path d="M35.831 45.126H34.78c-.28 0-.547.114-.744.317a1.1 1.1 0 00-.308.767c0 .287.11.563.308.766.197.204.465.318.744.318h1.052c.28 0 .547-.114.744-.318a1.1 1.1 0 00.308-.766c0-.288-.11-.564-.308-.767a1.037 1.037 0 00-.744-.317z" fill="url(#paint7_linear)"/><defs><linearGradient id="paint0_linear" x1="65.295" y1="26.695" x2=".053" y2="26.695" gradientUnits="userSpaceOnUse"><stop stop-color="#4CBA85"/><stop offset="1" stop-color="#2569AC"/></linearGradient><linearGradient id="paint1_linear" x1="6.366" y1="13.684" x2="4.262" y2="13.684" gradientUnits="userSpaceOnUse"><stop stop-color="#4CBA85"/><stop offset="1" stop-color="#2569AC"/></linearGradient><linearGradient id="paint2_linear" x1="10.575" y1="13.684" x2="8.471" y2="13.684" gradientUnits="userSpaceOnUse"><stop stop-color="#4CBA85"/><stop offset="1" stop-color="#2569AC"/></linearGradient><linearGradient id="paint3_linear" x1="14.784" y1="13.684" x2="12.68" y2="13.684" gradientUnits="userSpaceOnUse"><stop stop-color="#4CBA85"/><stop offset="1" stop-color="#2569AC"/></linearGradient><linearGradient id="paint4_linear" x1="41.093" y1="31.031" x2="15.838" y2="31.031" gradientUnits="userSpaceOnUse"><stop stop-color="#4CBA85"/><stop offset="1" stop-color="#2569AC"/></linearGradient><linearGradient id="paint5_linear" x1="41.093" y1="42.957" x2="15.838" y2="42.957" gradientUnits="userSpaceOnUse"><stop stop-color="#4CBA85"/><stop offset="1" stop-color="#2569AC"/></linearGradient><linearGradient id="paint6_linear" x1="32.675" y1="46.21" x2="15.838" y2="46.21" gradientUnits="userSpaceOnUse"><stop stop-color="#4CBA85"/><stop offset="1" stop-color="#2569AC"/></linearGradient><linearGradient id="paint7_linear" x1="36.883" y1="46.21" x2="33.727" y2="46.21" gradientUnits="userSpaceOnUse"><stop stop-color="#4CBA85"/><stop offset="1" stop-color="#2569AC"/></linearGradient></defs></svg>
